lib/brands/icons/perl.svg

<svg xmlns="http://www.w3.org/2000/svg" fill="none" aria-hidden="true" viewBox="0 0 48 48"><g id="perl-Icon"><g id="Group"><path id="Vector" fill="#3A3C5B" d="M41.999 24C41.999 33.9411 33.9401 42 23.999 42C14.0579 42 5.99902 33.9411 5.99902 24C5.99902 14.0588 14.0579 6 23.999 6C33.9401 6 41.999 14.0588 41.999 24Z"/><path id="Vector_2" fill="white" d="M36.5382 25.3313C35.9317 21.5044 31.9166 19.0254 28.9268 17.1558C27.6207 16.3391 25.5032 15.2752 25.2293 13.5575C25.1162 12.8477 25.1204 12.1143 25.0966 11.3976C25.0873 11.1161 25.0829 10.8331 25.0578 10.5524C25.0252 10.1902 24.6566 10.6366 24.4546 10.3205C23.9541 9.53798 24.1467 10.5576 24.196 10.9691C24.3118 11.9369 24.4478 12.9018 24.44 13.8787C24.425 15.7457 24.1242 17.5329 23.6587 19.3317C22.5684 23.5441 21.7084 27.8601 22.7869 32.1709C23.0104 33.064 23.3013 33.9452 23.6835 34.7835C23.799 35.037 24.0202 35.7446 24.3381 35.8293C25.4829 36.1348 26.3486 36.2233 27.2629 37.0749C27.8305 37.6036 28.2563 37.3148 28.9278 37.0461C30.9616 36.2321 32.7243 35.2078 34.1655 33.5316C36.1914 31.1754 37.0272 28.4171 36.5382 25.3313ZM34.387 29.1846C34.2065 30.7587 33.2192 32.1686 32.211 33.3376C31.4802 34.185 30.4913 35.2848 29.4078 35.6706C29.0176 35.8095 29.4791 35.0291 29.5364 34.9431C29.8718 34.4387 30.2852 33.9936 30.669 33.5269C31.2368 32.8368 31.7286 32.1124 32.061 31.2766C33.1644 28.5028 32.9137 25.1406 31.2806 22.6417C30.3915 21.2812 29.1713 20.1312 27.9412 19.0821C27.3469 18.5752 26.7455 18.0959 26.2454 17.4894C26.1297 17.3493 25.1083 16.0121 25.4261 15.8145C25.5287 15.7505 27.7611 18.0988 28.0039 18.2821C28.927 18.9791 29.8764 19.6236 30.7311 20.4085C31.8879 21.4712 33.0759 22.6583 33.7386 24.1035C34.4649 25.6871 34.5831 27.4724 34.387 29.1846Z"/><path id="Vector_3" fill="white" d="M23.3359 6.48512C23.6711 6.70858 23.7454 8.01176 23.7454 9.20322C23.7454 10.395 23.8572 15.5334 23.4848 16.9112C23.1126 18.2889 22.2561 19.8156 21.3252 21.1561C20.3943 22.4966 19.3145 25.3265 19.3517 27.0765C19.3888 28.8267 20.3943 31.6938 21.1763 32.8854C21.9612 34.0815 23.2936 35.7484 23.0008 36.125C22.4794 36.7952 20.3571 34.4865 19.24 33.1461C18.1229 31.8056 17.0058 29.0872 16.9686 26.9649C16.9313 24.8424 18.1229 22.8688 18.9793 21.6775C19.8358 20.4859 21.5113 18.4379 21.9582 17.507C22.405 16.5761 22.8891 15.5708 23.0381 14.2674C23.187 12.9642 23.0381 8.30959 23.0381 8.30959C23.0381 8.30959 23.0008 6.26166 23.3359 6.48512Z"/><path id="Vector_4" fill="white" d="M22.442 8.68205C22.777 8.831 22.8143 9.24056 22.8143 9.65026C22.8143 10.0598 22.7026 11.7355 22.5909 13.3738C22.4791 15.0122 21.176 16.39 20.2078 17.3581C19.2397 18.3261 16.447 21.3423 15.4043 22.8318C14.3618 24.3212 13.8422 26.2831 13.9522 27.9331C14.0639 29.6087 14.4734 31.2471 16.0374 32.9972C17.6014 34.7473 18.6812 35.5665 19.5003 35.9762C20.3195 36.3855 21.1388 36.6835 20.9525 37.056C20.7663 37.4282 19.9843 37.1675 19.1279 36.8698C18.2715 36.5717 15.3671 35.3804 13.6915 33.4813C12.0159 31.5821 11.1595 29.0501 11.234 26.6297C11.3083 24.2094 11.9787 23.2041 13.0958 21.6402C14.2128 20.0763 17.3034 17.7677 18.2715 17.172C19.2397 16.5762 20.5428 15.5708 21.176 14.7516C21.8089 13.9324 22.1441 13.262 22.1068 12.145C22.0696 11.028 22.1814 10.0225 22.1441 9.65026C22.1068 9.27792 22.1068 8.53324 22.442 8.68205Z"/><path id="Vector_5" fill="white" d="M22.5356 37.8697C22.687 37.8636 22.5914 38.5197 22.324 38.8453C22.0566 39.1708 21.5974 39.3666 21.5416 39.2356C21.4855 39.1046 21.8732 39.0293 22.1577 38.7125C22.419 38.4217 22.3499 37.8772 22.5356 37.8697Z"/><path id="Vector_6" fill="white" d="M25.5494 37.8525C25.3981 37.8462 25.4937 38.5023 25.7611 38.8278C26.0285 39.1533 26.4877 39.3492 26.5434 39.2182C26.5994 39.0872 26.2118 39.0119 25.9273 38.6951C25.666 38.4045 25.7352 37.8597 25.5494 37.8525Z"/><path id="Vector_7" fill="white" d="M24.2094 38.5643C24.2094 39.1374 24.2386 39.6018 24.1135 39.6018C23.9595 39.6018 24.0176 39.1374 24.0176 38.5643C24.0176 37.9913 23.9653 37.5267 24.1135 37.5267C24.2501 37.5267 24.2094 37.9913 24.2094 38.5643Z"/></g></g></svg>

<svg xmlns="http://www.w3.org/2000/svg" fill="none" aria-hidden="true" viewBox="0 0 48 48"><path fill="#3A3C5B" d="M41.999 24c0 9.941-8.059 18-18 18s-18-8.059-18-18 8.059-18 18-18 18 8.059 18 18Z"/><path fill="#fff" d="M36.538 25.331c-.606-3.827-4.621-6.306-7.611-8.175-1.306-.817-3.424-1.88-3.697-3.598-.114-.71-.11-1.444-.133-2.16-.01-.282-.014-.565-.039-.846-.032-.362-.401.085-.603-.232-.5-.782-.308.238-.259.65.116.967.252 1.932.244 2.909-.015 1.867-.316 3.654-.781 5.453-1.09 4.212-1.95 8.528-.872 12.839.224.893.515 1.774.897 2.612.115.254.336.962.654 1.046 1.145.306 2.01.394 2.925 1.246.568.529.993.24 1.665-.029 2.034-.814 3.796-1.838 5.238-3.514 2.026-2.357 2.862-5.115 2.372-8.2Zm-2.15 3.854c-.181 1.574-1.169 2.984-2.177 4.153-.73.847-1.72 1.947-2.803 2.333-.39.139.071-.642.129-.728.335-.504.748-.95 1.132-1.416.568-.69 1.06-1.415 1.392-2.25 1.104-2.774.853-6.136-.78-8.635-.89-1.36-2.11-2.51-3.34-3.56-.594-.507-1.195-.986-1.695-1.593-.116-.14-1.137-1.477-.82-1.675.103-.063 2.335 2.285 2.578 2.468.923.697 1.873 1.342 2.727 2.127 1.157 1.062 2.345 2.25 3.008 3.695.726 1.583.844 3.368.648 5.08Z"/><path fill="#fff" d="M23.336 6.485c.335.224.41 1.527.41 2.718 0 1.192.111 6.33-.261 7.708-.372 1.378-1.229 2.905-2.16 4.245-.93 1.34-2.01 4.17-1.973 5.92.037 1.75 1.042 4.618 1.824 5.81.785 1.195 2.118 2.862 1.825 3.239-.522.67-2.644-1.639-3.761-2.979s-2.234-4.059-2.271-6.181c-.038-2.123 1.154-4.096 2.01-5.288.857-1.191 2.532-3.24 2.98-4.17.446-.93.93-1.936 1.08-3.24.148-1.303 0-5.957 0-5.957s-.038-2.048.297-1.825Z"/><path fill="#fff" d="M22.442 8.682c.335.149.373.559.373.968 0 .41-.112 2.085-.224 3.724-.111 1.638-1.415 3.016-2.383 3.984s-3.76 3.984-4.803 5.474c-1.043 1.49-1.562 3.451-1.452 5.101.111 1.676.52 3.314 2.085 5.064 1.564 1.75 2.644 2.57 3.463 2.98.819.409 1.638.707 1.452 1.079-.186.372-.968.111-1.825-.186-.856-.298-3.76-1.49-5.436-3.389-1.676-1.899-2.532-4.43-2.457-6.851.074-2.42.744-3.426 1.861-4.99s4.208-3.872 5.176-4.468c.968-.596 2.271-1.601 2.905-2.42.632-.82.968-1.49.93-2.607-.037-1.117.075-2.122.038-2.495-.038-.372-.038-1.117.297-.968Zm.094 29.188c.151-.006.055.65-.212.975-.267.326-.727.522-.782.39-.057-.13.331-.206.616-.523.261-.29.192-.835.378-.842Zm3.014-.018c-.152-.006-.056.65.21.976.268.325.727.521.783.39.056-.13-.331-.206-.616-.523-.261-.29-.192-.835-.378-.843Zm-1.34.712c0 .573.029 1.038-.096 1.038-.154 0-.096-.465-.096-1.038s-.052-1.037.096-1.037c.136 0 .096.464.096 1.037Z"/></svg>
